X:1
T:Title
%%score 1 2 3
L:1/8
M:none
K:C
V:1 treble nm="Violin" snm="Vln."
V:2 treble nm="Piano" snm="Pno."
V:3 treble-8 nm="Guitarra" snm="Guit."
V:1
 D4 F4 | _B2 z6 | c4 z2 d_e | c2 F2 F2 F2 | f4 z2 cA | _B4 z4 | z8 |!pp!!<(! e4 f2!mp! z2!<)! |] %8
 z2 d2 B2 G2 | z2 c2 A2 F2 | _edcd _B2 e2 | d4 c2 z2 | z2 c2 A2 F2 | z2 D2 _B2 G2 | z2 z e f2 F2 | %15
 A4 _B2 z2 |]!p! D4 F4 | _B2 z6 | c4 z2 d_e | c2 F2 F2 F2 |!f! f4 z4 | c4 z z _Bd | _e4 _B2 A2 | %23
!p!!<(! A4!f! _B2 z2!<)! | z8 | z8 | z8 | z8 | z8 | z8 | z8 | z8 | z8 | z8 |] %34
V:2
 _B4 cBcd | _B2 .F2 .F2 .F2 | z4 dcd_e | AFAc AcAF | d2 z2 A_BcA | z4 GEC_B, | Afdg f2 e2 | %7
 c2 C2 F2 z2 |] F4 D_EFG | _E4 CDEF | _EDCD _B,2 E2 | z8 | _e4 dc_BA | f4 _edc_B | Gg_ec F2 A2 | %15
 f2 F2 _B2 z2 |] _B4 cBcd | _B2 .F2 .F2 .F2 | z4 dcd_e | AFAc AcAF | z4 gf_ed | c4 _ec_Bd | %22
 _E4 F2 F,2 | f2 F2 _B2 z2 | z8 | z8 | z8 | z8 | z8 | z8 | z8 | z8 | z8 | z8 |] %34
V:3
 z8 | d_Bdf dfdB | F4 _BABc | c2 .F2 .F2 .F2 | z4 F4 | G4 E4 | F2 _B2 c2 c2 | c2 C2 F2 z2 |] z8 | %9
 _e4 cdef | _B2 A2 G2 c2 | g_BdB f2 z2 | _e2 c2 A2 F2 | f4 _B2 G2 | Gg_ec _B2 A2 | A4 _B2 z2 |] %16
 z8 | d_Bdf dfdB | F4 _BABc | c2 .F2 .F2 .F2 | d2 c2 B2 c2 | A2 G2 ^F2 G2 | c2 d_e/c/ _B2 A2 | %23
 f2 F2 _B2 z2 | z8 | z8 | z8 | z8 | z8 | z8 | z8 | z8 | z8 | z8 |] %34

